X:1
T:Du corps absent
T:Jean de Castro
T:Source : La fleur des chansons à 3---Louvain---P.Phalèse---1574. Editor : André Vierendeels (13/08/18) Notes : Original clefs : C1, C3, C4 Original note values have been halved Editorial accidentals above the staff
T:Du corps absent
T:©
T:©
T:©
C:Jean de Castro
Z:©
%%score [ 1 2 3 ]
L:1/8
Q:1/4=90
M:2/2
K:C
V:1 treble nm="Soprano" snm="S"
V:2 treble nm="Alto" snm="A"
V:3 treble-8 nm="Tenor" snm="T"
V:1
 z4 E4 | ^G2 G2 A4- | A2 G2 G3 F | ED ^C2 z4 | E4 A4- | A2 G2 G2 G2 | A2 c2 BB c2- | %7
w: Du|corps ab- sent,|_ le cueur, _|_ _ _|du corps|_ ab- sent, le|cueur ie te pre- sen-|
 cB A3 ^G/^F/ G2 | A4 z2 A2 | B2 B2 G4 | z2 A2 GEFD |"^-natural" E2 z A BcAA | G2 G4 E2 | %13
w: |te, qui|loy- al- ment|sans fin te ser- vi-|ra, sans fin te ser- vi-|ra et en|
 ^F2 G G2 E2 F- | FG z2 z B G2- | G A2 B z G A2 | D G2 F GGGE | DD C2 z2 D2- | D2 d3 cBA | %19
w: tous lieux, et en tous|_ lieux, et en|_ tous lieux, com- me|ton serf i- ra, com- me ton|serf i- ra, vi|_ vant _ _ _|
 G2 G2 A2 A2 | c3 B AGFE | DCDE ^F G2 F | G4 z2 G2 | c3 B A2 G2 | E4 ^F2 A2 | c3 B A2 G2 | %26
w: _ d'es- poir, vi-|vant _ _ _ _ _|_ _ _ _ _ _ d'es-|poir, se|nour- ris- sant d'at-|ten- te, se|nour- ris- sant d'at-|
 c2 AA c3 B | A2 G2 A4 | ^G8 |] %29
w: ten- te, se nour- ris-|sant d'at- ten-|te.|
V:2
 A,4 C3 D | E2 E2 F2 D2 | E4 z2 B,2 | ^C2 E2 E3 E | B,2 ^C2 z2 A,2 | B,2 B,2 C2 E2 | EDEF G2 E2 | %7
w: Du corps _|_ a- sent, le|cueur, le|cueur ie te pre-|sen- te, du|corps ab- sent, le|cueur _ _ _ _ ie|
 A,3 A, CB,/A,/ B,2 | C2 z E F2 F2 | DDGG E4 | z2 F2 ECDB, | A,2 ^C2 DEED | E4 z2 ^C2 | D2 E4 C2 | %14
w: te pre- sen- * * *|te, qui loy- al-|ment, qui loy- al- ment|sans fin te ser- vi-|ra, sans fin te ser- vi-|ra, en|_ tous lieux,|
 z2 G2 EF G2 | z2 A2 G E2 F- | FDEC D2 G,C- | CB,CE DB,A,A, | B,2 z D G3 F | EDCB, A,2 E2 | %20
w: en tous _ lieux,|com- me ton serf|_ i- ra, com- me ton serf|_ i- ra, com- me ton serf i-|ra, vi- vant, _|_ _ _ _ _ vi-|
 A3 G FEDC | B,3 A,/G,/ A,2 A,2 | B,4 z4 | z CGG E3 B, | ^CD3/2C/4B,/4C DD F2- | F2 E2 E2 E2 | %26
w: vant, _ _ _ _ _|_ _ _ _ d'es-|poir,|se nour- ris- sant d'at-|ten- * * * * te, se nour-|* ris- sant, se|
 AA F4 E2 | F2 E3 D/C/ D2 | E8 |] %29
w: nour- ris- sant d'at-|ten- * * * *|te.|
V:3
 z8 | z8 | E8 | A6 ^G2 | ^G2 A2 F2 F2 | E4 z2 E2 | A2 A2 GEAA | F3 D E4 | A2 z A d2 d2 | %9
w: ||Du|corps ab-|sent, du corps ab-|sent, du|corps ab- sent, le cueur ie|te pre- sen-|te, qui loy- al-|
 G2 G2 c2 c2 | F4 z4 | z2 A2 GEFF | E4 z4 | z2 c4 A2 | B2 c2 z2 G2 | E2 F2 G c2 d- | dBcA G2 z2 | %17
w: ment, qui loy- al-|ment|sans fin te ser- vi-|ra,|en _|tous lieux, en|_ tous lieux, com- me|_ ton serf i- ra,|
 z G A2 D G2 ^F | G2 G4 g2- | gfed cBAG | F6 F2 | G3 F/E/ D4 | z2 G2 c3 B | A2 z G c3 G | %24
w: com- me ton serf i-|ra, vi- vant|_ _ _ _ _ _ _ _|* d'es-|poir, _ _ _|se nour- ris-|sant, se nour- ris-|
 AB A2 D4 |"^-natural" z2 A2 c3 B | A2 D2 A3 G | F2 C2 F4 | E8 |] %29
w: sant d'at- ten- te,|se nour- ris-|sant, se nour- ris-|sant d'at- ten-|te.|

